X: 473
T: Od Yishoma #3
O: Trad
M: 2/4
L: 1/8
K: Fm
[|"Fm"F>E FG | A2 A>A \
| A>G AB | AG F2 \
| "Fm"F>E FG | A2 A>A \
| "Fm"A2{BA} FA | "Bbm"B4 \
|| FB2 B | B2 BB 
| "Bbm"B2{cB}AB | "Fm"cB A2 \
| FA2 A | A2 "Bbm"B2 \
| "Fm"A2 "C7"G2 | "Fm"F2 "Eb7"E2 \
|[|"Ab"A>E AB | c2 c>c \
| "Eb"B2 c>c | "Ab"B A3 \
| A>E AB 
| "Ab"c2 c>c \
| "E7"BB ed | "Ab"c4 \
||"Ab"AE AB | c2 c>c \
| "C7"B2 c2 | "Fm"B A3 \
| AB BA | "C7"cB BA \
| AG GF | "Fm"F4 |]



